X: 145121
T: A CLOG DANCE
R: Clog, Hornpipe.
%R: clog, hornpipe
B: James Kerr "Merry Melodies" v.1 p.45 s.1 #21
Z: 2016 John Chambers <jc:trillian.mit.edu>
M: C
L: 1/8
K: A
(3(uEFG) |\
A2A>c B>AF>E | A>ce>a f2e2 |\
f>ec>A B>AF>E | B>cB>A F2 (3(EFG) |\
A2A>c B>AF>E | A>ce>a f2e2 |\
f>ec>A B>AF>E | A2A2A2 |]
ue2 |\
e>fe>c A>ca>g | f>ed>c d>ef>g |\
a>gf>e f>ed>c | B>Ac>A F2 (3(EFG) |\
A2A>c B>AF>E | A>ce>a f2e2 |\
f>ec>A B>AF>E | A2A2A2 |]

%%sep 1 1 500
%%sep 1 1 500

